!! J.S. Bach, Die Kunst der Fuge; Fuga 6 in d minor; BWV 1080.
!! Encoded from "Bach; Die Kunst der Fuge", (Carl Czerny, ed.)
!! New York: C.F. Peters Co., pp.16-19; in four voices.
!! Performance duration: 4:06; performance tempo: 77.1 quarter-notes per minute.
!! (Davitt Moroney, harpsichord, "Bach, 'Die Kunst der Fuge'",
!! Harmonia Mundi No. HMC 1169.70)
!! NOTE:  The texture expands to five voices in bar 76.  Double-stops
!!        occur in bar 79.
**kern	**kern	**kern	**kern
*d:	*d:	*d:	*d:
*M4/4	*M4/4	*M4/4	*M4/4
*MM77.1	*MM77.1	*MM77.1	*MM77.1
=1	=1	=1	=1
2D	1r	1r	1r
4.A	.	.	.
8G	.	.	.
=2	=2	=2	=2
4.F	1r	1r	4aa
.	.	.	8.dd
8E	.	.	.
.	.	.	16ee
2D	.	.	8.ff
.	.	.	16gg
.	.	.	4aa
=3	=3	=3	=3
2C#	1r	2r	4bb-
.	.	.	8.aa
.	.	.	16gg
4.D	.	4d	[4ff
.	.	8.a	16ff]
.	.	.	16ee
8E	.	.	16ff
.	.	16g	16gg
=4	=4	=4	=4
[2F	1r	8.f	8.aa
.	.	16e	16gg
.	.	4d	16ff
.	.	.	16ee
.	.	.	16dd
.	.	.	16cc
8.F]	.	4c#	4b-T
16G	.	.	.
8.F	.	8.d	[4a
16E	.	16e	.
=5	=5	=5	=5
8.D	1r	[4f	8.a]
16DD	.	.	16bn
8.EE	.	16f]	[4cc
.	.	16g	.
.	.	16f	.
16FF	.	16e	.
8.GG	.	4d	8.cc]
16AA	.	.	16b
8.GG	.	8.e	8.cc#
16FF	.	16f	16dd
=6	=6	=6	=6
8.EE	1r	4g	[4ee
16E	.	.	.
8.F	.	[4f	16ee]
.	.	.	16ff
.	.	.	16ee
16G	.	.	16dd
8.A	.	8.f]	4cc#
16B-	.	16e	.
8.A	.	8.f	8.dd
16G	.	16g	16ee
=7	=7	=7	=7
4F	4d	[2a	8.ff
.	.	.	16ee
4D	8.A	.	8.ff
.	16Bn	.	16dd
[2A	8.c	8.a]	[2ee
.	16d	16bn	.
.	4e	[8cc	.
.	.	32cc]	.
.	.	32b	.
.	.	32a	.
.	.	32g#	.
=8	=8	=8	=8
1A_	4f	2a	8.ee]
.	.	.	16dd
.	8.e	.	8.cc
.	16d	.	16bn
.	[4c	4.ee	8.a
.	.	.	16aa
.	16c]	.	8.gg
.	16Bn	.	.
.	16c	8dd	.
.	16d	.	16ff
=9	=9	=9	=9
8.A]	2.e	4.cc	4ee
16E	.	.	.
8.A	.	.	4r
.	.	8bn	.
16G	.	.	.
8.F	.	2a	2r
16E	.	.	.
8.F	[4d	.	.
16D	.	.	.
=10	=10	=10	=10
4.E	8.d]	2g#	2r
.	16Bn	.	.
.	8.e	.	.
8E	.	.	.
.	16d	.	.
8.F	8.c	4.a	4a
16E	16d	.	.
8.F#	8.c	.	8.ee
.	.	8bn	.
16G#	16B	.	16dd
=11	=11	=11	=11
8.A	8.A	[2cc	8.cc
16Gn	[16e	.	16bn
4Fn	8.e]	.	4a
.	16d#	.	.
2E	8.e	8.cc]	4g#
.	16Bn	16dd	.
.	8.c	8.cc	8.a
.	16G#	16bn	16bn
=12	=12	=12	=12
1r	8.A	[4a	[4cc
.	16E	.	.
.	[4F	8.a]	16cc]
.	.	.	16dd
.	.	.	16cc
.	.	16g#	16bn
.	16F]	[4.a	[2a
.	16Gn	.	.
.	16F	.	.
.	16E	.	.
.	[4D	.	.
.	.	32a]	.
.	.	32gn	.
.	.	32f	.
.	.	32e	.
=13	=13	=13	=13
1r	8D_	[2f	4.a_
.	32D]	.	.
.	32A	.	.
.	32B-	.	.
.	32c	.	.
.	8.d	.	.
.	.	.	32a]
.	.	.	32a
.	16c	.	32b-
.	.	.	32cc
.	8.B-	4.f_	[2dd
.	16c	.	.
.	8.B-	.	.
.	.	32f]	.
.	.	32f	.
.	16A	32g	.
.	.	32a	.
=14	=14	=14	=14
1r	[8G	[2b-	4.dd_
.	32G]	.	.
.	32d	.	.
.	32e	.	.
.	32f	.	.
.	8.g	.	.
.	.	.	32dd]
.	.	.	32dd
.	16f	.	32ee
.	.	.	32ff
.	8.e	8.b-]	[2gg
.	16f	16bn	.
.	8.e	8dd	.
.	.	32cc#	.
.	.	32b	.
.	16d	32cc#	.
.	.	32dd	.
=15	=15	=15	=15
4A	4c#	[4ee	8.gg]
.	.	.	32ff
.	.	.	32ee
8.D	2A	8.ee]	8.ff
16E	.	32dd	16gg
.	.	32cc#	.
8.F	.	[4dd	8.aa
16G	.	.	32gg
.	.	.	32ff
4A	4r	8.dd]	8.ee
.	.	16ccn	16ff#
=16	=16	=16	=16
4B-	2d	8.b-	4gg
.	.	16g	.
8.A	.	8.fn	4r
16G	.	16e	.
[4F	4.a	8.d	4aa
.	.	16cc#	.
16F]	.	4dd	8.dd
16E	.	.	.
16F	8g	.	.
16G	.	.	16ee
=17	=17	=17	=17
2A	4.f	8.dd	8.ff
.	.	16bn	16gg
.	.	8.cc#	4aa
.	8e	.	.
.	.	16a	.
4r	2d	8.f	4bb-
.	.	16e	.
8r	.	8.f	8.aa
8B-	.	.	.
.	.	16g	16gg
=18	=18	=18	=18
8.A	2c#	[4a	[4ff
16G	.	.	.
[4F	.	8.a]	16ff]
.	.	.	16ee
.	.	.	16ff
.	.	16b-	16gg
8F_	4.d	8.a	4aa
32F]	.	.	.
32G	.	.	.
32F	.	16gg	.
32E	.	.	.
4D	.	16ff	4r
.	.	16ee	.
.	8e	16dd	.
.	.	16cc#	.
=19	=19	=19	=19
8r	[2f	[4dd	1r
32r	.	.	.
32D	.	.	.
32E	.	.	.
32F	.	.	.
[4G	.	16dd]	.
.	.	16ccn	.
.	.	16bn	.
.	.	16a	.
8G_	8.f]	8.b	.
32G]	.	.	.
32E	.	.	.
32F	16g	16g	.
32G	.	.	.
8.A	8.f	[4cc	.
16G	16e	.	.
=20	=20	=20	=20
8.F	4d	8.cc]	1r
16D	.	32bn	.
.	.	32a	.
8.G	4r	8.bT	.
16F	.	16cc	.
[8E	2c	8.cc	.
32E]	.	.	.
32C	.	.	.
32D	.	16b-	.
32E	.	.	.
8.F	.	8.aT	.
16E-	.	32g	.
.	.	32a	.
=21	=21	=21	=21
8.D	4.F	8.b-	2r
16C	.	16dd	.
8.D	.	8.cc	.
.	8G	.	.
16En	.	16b-	.
8.F	4.A	[4a	8.r
16E	.	.	16dd
8.F	.	8.a]	8.cc
.	8B-	.	.
16G	.	16g	16b-
=22	=22	=22	=22
[4A	2c	8.f	8.a
.	.	16g	16b-
8A_	.	8.f	[4cc
32A]	.	.	.
32F	.	.	.
32G	.	16e-	.
32A	.	.	.
8.B-	2d	4d	8cc_
.	.	.	32cc]
.	.	.	32f
16A	.	.	32g
.	.	.	32a
8.G	.	[4g	8.b-
16F	.	.	16b-
=23	=23	=23	=23
8.En	4.c	8.g]	8.b-
16C	.	16e	32a
.	.	.	32g
[4F	.	[4f	8.a
.	8B-	.	.
.	.	.	16b-
8.F]	[2A	8.f]	8.cc
16G	.	16e	16cc
8.F	.	8.f	8.dd
16E	.	16g	16ee
=24	=24	=24	=24
2D	8.A]	4a	8.ff
.	16G	.	16ee
.	8.A	4dd	8.ff
.	16Bn	.	16gg
[8C	4c	4g	8.ee
32C]	.	.	.
32G	.	.	.
32A	.	.	16dd
32B-	.	.	.
8.c	4r	4r	[4ee
16B-	.	.	.
=25	=25	=25	=25
8.A	1r	2f	8.ee]
16F	.	.	32dd
.	.	.	32cc#
8.B-	.	.	[8dd
.	.	.	32dd]
.	.	.	32ccn
16d	.	.	32b-
.	.	.	32a
[4E	.	4.cc	8.g
.	.	.	16b-
8E]	.	.	8.a
32E	.	8b-	.
32C	.	.	.
32D	.	.	16g
32E	.	.	.
=26	=26	=26	=26
8.F	4c	4.a	[4f
16E	.	.	.
[4D	8.F	.	16f]
.	.	.	16e
.	.	8g	16d
.	16G	.	16c#
16D]	8.A	2f	4d
16D	.	.	.
16Cn	.	.	.
16BB-	16B-	.	.
16AA	4cn	.	8.r
16FF	.	.	.
16GG	.	.	.
16AA	.	.	16dd
=27	=27	=27	=27
16BB-	4d-	2e	[4g
16GG	.	.	.
16AA	.	.	.
16BB-	.	.	.
8.C	8.c	.	16g]
.	.	.	16b-
.	.	.	16a
16C#	16B-	.	16g
16Dn	[4A	4.f	16f
16C#	.	.	16a
16D	.	.	16bn
16E	.	.	16cc#
[4F	16A]	.	4dd
.	16G	.	.
.	16A	8g	.
.	16B-	.	.
=28	=28	=28	=28
16F]	[4c	[2a	16r
16E	.	.	16cc
16F	.	.	16dd
16G	.	.	16ee
[4A	16c]	.	8.ff
.	16Bn	.	.
.	16c	.	.
.	16d	.	32ee
.	.	.	32dd
8.A]	4e	8.a]	[2cc
16G	.	16b-	.
8.F	4r	8.a	.
16E	.	16g	.
=29	=29	=29	=29
[4D	1r	[2f	8.cc]
.	.	.	16a
8D_	.	.	8.dd
32D]	.	.	.
32DD	.	.	.
32EE	.	.	16cc
32FF	.	.	.
[4GG	.	8.f]	[2b-
.	.	16d	.
8GG_	.	8.g	.
32GG]	.	.	.
32FF	.	.	.
32EE	.	16f	.
32DD	.	.	.
=30	=30	=30	=30
[4CC	1r	[2e	8.b-]
.	.	.	16g
8CC_	.	.	8.cc
32CC]	.	.	.
32C	.	.	.
32D	.	.	16b-
32E	.	.	.
[4F	.	8.e]	[2a
.	.	16c	.
8F_	.	8.f	.
32F]	.	.	.
32E	.	.	.
32D	.	16e	.
32C	.	.	.
=31	=31	=31	=31
2BB-	2D	2.d	8.a]
.	.	.	32g
.	.	.	32f
.	.	.	8.g
.	.	.	16e
[2AA	4.A	.	8.f
.	.	.	16g
.	.	4c#	[4e
.	8G	.	.
=32	=32	=32	=32
1AA_	4.F	4a	8.e]
.	.	.	32d
.	.	.	32c#
.	.	8.d	[4d
.	8E	.	.
.	.	16e	.
.	2D	8.f	8.d]
.	.	16g	16e
.	.	4a	8.f
.	.	.	16d
=33	=33	=33	=33
4.AA]	2C#	4b-	[8g
.	.	.	32g]
.	.	.	32ee
.	.	.	32ff
.	.	.	32gg
.	.	8.a	8.ff
8AA	.	.	.
.	.	16g	16ee
8.BB-	4.D	[4f	8.dd
16AA	.	.	16cc
4GG	.	16f]	4b-
.	.	16e	.
.	8E	16f	.
.	.	16g	.
=34	=34	=34	=34
8.FF	[2F	8.a	8a
.	.	.	8r
16GG	.	16b-	.
8.AA	.	8.cc	4r
16BB-	.	16dd	.
[2C	8.F]	8.g	2r
.	16G	16ee-	.
.	8.F	8.a	.
.	16E-	32b-	.
.	.	32cc	.
=35	=35	=35	=35
4.C]	8.D	8.f#	2dd
.	16F#	16a	.
.	8.G	[4d	.
8C	.	.	.
.	16A	.	.
4.BB-	4B-	8.d]	4.g
.	.	16d	.
.	4c	8.e	.
8AA	.	.	8a
.	.	16f#	.
=36	=36	=36	=36
4GG	[4d	8.g	4.b-
.	.	16f#	.
8.D	16d]	8.g	.
.	16c	.	.
.	16B-	.	8cc
16C	16A	16a	.
8.BB-	4G	8.b-	2dd
16AA	.	32cc	.
.	.	32dd	.
4GG	4r	16cc	.
.	.	16b-	.
.	.	16a	.
.	.	16g	.
=37	=37	=37	=37
4FF#	2r	8.cc	2ee-
.	.	32b-	.
.	.	32a	.
8.GG	.	8.b-	.
16AA	.	16f#	.
[4BB-	4d	8.g	4.dd
.	.	32a	.
.	.	32b-	.
16BB-]	8.G	8.en	.
16C	.	.	.
16BB-	.	.	8cc
16AA	16A	16f#	.
=38	=38	=38	=38
8GG	8.B-	4g	[2b-
[8G	.	.	.
.	16c	.	.
8G_	4d	4r	.
32G]	.	.	.
32F	.	.	.
32E-	.	.	.
32D	.	.	.
8.C	4e-	2r	8.b-]
16F	.	.	16a
8.G	8.d	.	8.b-
16A	16c	.	16cc
=39	=39	=39	=39
8.B-	[4B-	1r	[4dd
16A	.	.	.
[4G	16B-]	.	16dd]
.	16A	.	16ee-
.	16B-	.	16dd
.	16c	.	16cc
8.G]	[4d	.	16b-
.	.	.	16dd
.	.	.	16ee
16F	.	.	16ff
[4E-	16d]	.	[4gg
.	16G	.	.
.	16A	.	.
.	16Bn	.	.
=40	=40	=40	=40
8.E-]	4c	1r	16gg]
.	.	.	16aa-
.	.	.	16gg
16D	.	.	16ff
8.C	4r	.	16ee-
.	.	.	16dd
.	.	.	16cc
16D	.	.	16b-
16E-	2r	.	8.anT
16G	.	.	.
16F	.	.	.
16E-	.	.	32g
.	.	.	32f
16D	.	.	[4b-
16C	.	.	.
16BB-	.	.	.
16AA	.	.	.
=41	=41	=41	=41
8.GG	1r	1r	16b-]
.	.	.	16a
.	.	.	16g
16FF	.	.	16a
8.GG	.	.	16b-
.	.	.	16cc
.	.	.	16dd
16BB-	.	.	16een
16AA	.	.	8.ff
16FF	.	.	.
16GG	.	.	.
16AA	.	.	16ee-
16BB-	.	.	16dd
16C	.	.	16cc
16D	.	.	16b-
16E-	.	.	16a
=42	=42	=42	=42
4D	1r	4f	8.b-
.	.	.	32cc
.	.	.	32dd
4E-	.	8.B-	8.g
.	.	16c	16gg
[2F	.	8.d	[8b-
.	.	.	32b-]
.	.	.	32a
.	.	16e-	32g
.	.	.	32a
.	.	4f	8.aT
.	.	.	16b-
=43	=43	=43	=43
16F]	1r	4g	4b-
32E-	.	.	.
32D	.	.	.
16E-	.	.	.
16C	.	.	.
8.AAT	.	8.f	8.r
32GG	.	16e-	16cc
32AA	.	.	.
8.BB-	.	[4d	[8f
.	.	.	32f]
.	.	.	32g
16B-	.	.	32f
.	.	.	32en
8.A	.	16d]	8.f
.	.	16c	.
.	.	16d	.
16G	.	16en	16g
=44	=44	=44	=44
8.F	1r	8.f	[4a
16FF	.	16c	.
8.EE-	.	2f	16a]
.	.	.	16g
.	.	.	16a
16DD	.	.	16bn
8.CC	.	.	8.cc
16C	.	.	16g
8.BB-	.	16en	[4cc
.	.	16d	.
.	.	16e	.
16AA	.	16f#	.
=45	=45	=45	=45
8.GG	1r	8.g	4cc]
16G	.	16d	.
8.Fn	.	2g	16bn
.	.	.	16a
.	.	.	16b
16E	.	.	16cc#
[8D	.	.	8.dd
32D]	.	.	.
32A	.	.	.
32Bn	.	.	16ee
32c#	.	.	.
8.d	.	[8f	[4ff
.	.	32f]	.
.	.	32a	.
16cn	.	32b-	.
.	.	32ccn	.
=46	=46	=46	=46
8.B-	1r	4dd	8.ff]
16A	.	.	16ff
8.B-	.	2g	8.ee
16G	.	.	16dd
4A	.	.	8.cc#
.	.	.	16a
4r	.	8.f	[4dd
.	.	16d	.
=47	=47	=47	=47
2AA	1r	4e	8.dd]
.	.	.	32ccn
.	.	.	32bn
.	.	8.a	[4cc
.	.	16g	.
4.DD	.	8.f	8.cc]
.	.	16e	32b-
.	.	.	32a
.	.	8.d	[4b-
8EE	.	.	.
.	.	16c#	.
=48	=48	=48	=48
4.FF	4d	[2d	16b-]
.	.	.	16b-
.	.	.	16a
.	.	.	16g
.	8.A	.	[4f
8GG	.	.	.
.	16G	.	.
2AA	8.F	8.d]	8.f]
.	16E	16e	16g
.	4D	8.f	8.a
.	.	16g	16b-
=49	=49	=49	=49
2BB-	4C#	4e	8.g
.	.	.	32ee
.	.	.	32ff
.	8.D	8.r	8.gg
.	16E	16g	16cc#
4.AA	[4F	8.f	8.dd
.	.	16g	16ee
.	16F]	[4a	8.cc#T
.	16G	.	.
8GG	16F	.	.
.	16E	.	16dd
=50	=50	=50	=50
[2FF	8.D	4a]	8.dd
.	16C#	.	16ee
.	8.D	4r	8.ff
.	16E	.	16gg
8.FF]	8F	8r	[4aa
.	8r	32r	.
.	.	32ee	.
16EE	.	32dd	.
.	.	32cc#	.
8.FF	4r	[4dd	8aa_
.	.	.	32aa]
.	.	.	32aa
16GG	.	.	32gg
.	.	.	32ff
=51	=51	=51	=51
[2AA	8r	4dd_	[2ee
.	32r	.	.
.	32E	.	.
.	32F#	.	.
.	32G#	.	.
.	[4A	8dd_	.
.	.	32dd]	.
.	.	32dd	.
.	.	32ccn	.
.	.	32bn	.
8AA_	8A]	4cc	8.ee]
32AA]	8r	.	.
32C	.	.	.
32BBn	.	.	16dd
32AA	.	.	.
[8GGn	4r	4r	8.ee
32GG]	.	.	.
32AA	.	.	.
32GG	.	.	16ffn
32FF	.	.	.
=52	=52	=52	=52
8.EE	2r	8r	[4gg
.	.	32r	.
.	.	32dd	.
16DD	.	32cc	.
.	.	32bn	.
8.EE	.	[2cc	8gg_
.	.	.	32gg]
.	.	.	32gg
16FF	.	.	32ff
.	.	.	32ee
[2GG	8r	.	[2dd
.	32r	.	.
.	32D	.	.
.	32E	.	.
.	32F#	.	.
.	[4G	8cc_	.
.	.	32cc]	.
.	.	32cc	.
.	.	32b-	.
.	.	32a	.
=53	=53	=53	=53
8GG_	8G]	4b-	8.dd]
32GG]	8r	.	.
32BB-	.	.	.
32AA	.	.	16cc#
32GG	.	.	.
[8FF	4r	4r	8.dd
32FF]	.	.	.
32GG	.	.	.
32FF	.	.	16ee
32EE	.	.	.
8.DD	2r	8r	[4ff
.	.	32r	.
.	.	32ccn	.
16CC	.	32b-	.
.	.	32a	.
8.DD	.	[4b-	8ff_
.	.	.	32ff]
.	.	.	32ff
16EE	.	.	32ee
.	.	.	32dd
=54	=54	=54	=54
[2FF	8r	4b-_	[2cc
.	32r	.	.
.	32C	.	.
.	32D	.	.
.	32E	.	.
.	[4F	8b-_	.
.	.	32b-]	.
.	.	32b-	.
.	.	32a	.
.	.	32g	.
8FF]	16F]	[2a	8.cc]
.	16G	.	.
8r	16F	.	.
.	16E	.	16cc
4r	16D	.	8.ff
.	16F	.	.
.	16G	.	.
.	16A	.	16ee
=55	=55	=55	=55
1r	16B-	8.a]	8.dd
.	16c	.	.
.	16B-	.	.
.	16A	16d	16cc
.	16G	8.g	[4b-
.	16F	.	.
.	16E	.	.
.	16D	16f	.
.	16C#	8.e	8.b-]
.	16G	.	.
.	16A	.	.
.	16B-	16d	16e
.	16A	4c#	8.a
.	16G	.	.
.	16F	.	.
.	16E	.	16g
=56	=56	=56	=56
1r	16D	[2d	8.f
.	16A	.	.
.	16B-	.	.
.	16c	.	16f#
.	16B-	.	8.g
.	16A	.	.
.	16G	.	.
.	16F#	.	16a
.	[2G	16d]	8.b-
.	.	16d	.
.	.	16e	.
.	.	16fn	16bn
.	.	16e	8.cc#
.	.	16d	.
.	.	16c#	.
.	.	16Bn	16dd
=57	=57	=57	=57
1r	16G]	[4c#	4ee
.	16B-	.	.
.	16A	.	.
.	16G	.	.
.	2F	16c#]	8.aa
.	.	16A	.
.	.	16Bn	.
.	.	16c#	16gg
.	.	8.d	8.ff
.	.	16e	16ee
.	4B-	8.f	4dd
.	.	16g	.
=58	=58	=58	=58
8r	4A	2a	4cc#
16r	.	.	.
16AA	.	.	.
8.BBn	4r	.	8.dd
16C#	.	.	16ee
8.D	4.d	4d	[4ff
16E	.	.	.
[4F	.	8.a	16ff]
.	.	.	16gg
.	8e	.	16ff
.	.	16g	16ee
=59	=59	=59	=59
8F_	8.f	4.f	4dd
32F]	.	.	.
32F	.	.	.
32G	16e	.	.
32A	.	.	.
8.B-	4d	.	4r
.	.	8g	.
16BB-	.	.	.
16AA	4c#	2a	2r
16B-	.	.	.
16A	.	.	.
16G	.	.	.
16F	8.d	.	.
16E	.	.	.
16D	.	.	.
16C#	16e	.	.
=60	=60	=60	=60
16D	[4f	2b-	1r
16cn	.	.	.
16B-	.	.	.
16A	.	.	.
16G	16f]	.	.
16F	16a	.	.
16E	16g	.	.
16D	16f	.	.
16C#	16e	4.a	.
16d	16f	.	.
16c#	16e	.	.
16Bn	16d	.	.
16A	4c#	.	.
16G	.	.	.
16F	.	8g	.
16E	.	.	.
=61	=61	=61	=61
16D	8.d	[2f	1r
16E	.	.	.
16D	.	.	.
16C	16A	.	.
16BB-	[8d	.	.
16AA	.	.	.
16GG	32d]	.	.
.	32c	.	.
16FF	32B-	.	.
.	32A	.	.
16GG	8.B-	8.f]	.
16D	.	.	.
16C	.	.	.
16BB-	16G	16e	.
16AA	[4c	8.f	.
16GG	.	.	.
16FF	.	.	.
16EE	.	16g	.
=62	=62	=62	=62
16FF	4c]	[4a	1r
16C	.	.	.
16D	.	.	.
16E	.	.	.
16F	4r	16a]	.
16G	.	16c	.
16F	.	16d	.
16E	.	16e	.
16D	2r	16f	.
16F	.	16g	.
16G	.	16f	.
16A	.	16e	.
16B-	.	16d	.
16c	.	16f	.
16B-	.	16g	.
16A	.	16a	.
=63	=63	=63	=63
16G	2r	16b-	1r
16GG	.	16cc	.
16AA	.	16b-	.
16BB-	.	16a	.
16C	.	16g	.
16D	.	16G	.
16C	.	16A	.
16BB-	.	16B-	.
16AA	4F	16c	.
16BB-	.	16d	.
16AA	.	16c	.
16GG	.	16B-	.
[4FF	8.c	16A	.
.	.	16B-	.
.	.	16A	.
.	16B-	16G	.
=64	=64	=64	=64
4FF_	8.A	[8F	2r
.	.	32F]	.
.	.	32A	.
.	16G	32Bn	.
.	.	32c#	.
8FF_	4F	[4d	.
32FF]	.	.	.
32EE	.	.	.
32FF	.	.	.
32GG	.	.	.
16AA	4E	8.d]	2a
16B-	.	.	.
16A	.	.	.
16G	.	16c#	.
16F	8.F	8.d	.
16E	.	.	.
[8D	.	.	.
.	16G	16e	.
=65	=65	=65	=65
16D]	[4A	4f	4.d
16C	.	.	.
16BB-	.	.	.
16AA	.	.	.
16BB-	16A]	4r	.
16GG	16B-	.	.
8C#	16A	.	8e
.	16G	.	.
16D	16F	4d	4.f
16BB-	16G	.	.
16AA	16F	.	.
16GG	16E	.	.
16FF	8.D	8.a	.
16GG	.	.	.
16FF	.	.	8g
16EE	16A	16g	.
=66	=66	=66	=66
16DD	8.d	8.f	2a
16AA	.	.	.
16BB-	.	.	.
16C	16c	16e	.
16D	8.B-	4d	.
16E	.	.	.
8F	.	.	.
.	16A	.	.
16r	8G	4c#	2b-
16E	.	.	.
16F	8r	.	.
16G	.	.	.
16F	4r	8.d	.
16E	.	.	.
16D	.	.	.
16C#	.	16e	.
=67	=67	=67	=67
[2.D	16r	[4f	4.a
.	16E	.	.
.	16F	.	.
.	16G	.	.
.	[4A	16f]	.
.	.	16g	.
.	.	16f	8g
.	.	16e	.
.	16A]	8.d	[2f
.	16B-	.	.
.	16A	.	.
.	16G	16A	.
16D]	[4F	8.B-	.
16E-	.	.	.
16D	.	.	.
16C	.	16c	.
=68	=68	=68	=68
[4BB-	16F]	[2d	8.f]
.	16En	.	.
.	16D	.	.
.	16C#	.	16e
16BB-]	2D	.	8.f
16BB-	.	.	.
16AA	.	.	.
16GG	.	.	16g
4FF#	.	8.d]	[2a
.	.	16A	.
4r	8.r	8.d	.
.	16D	16cn	.
=69	=69	=69	=69
4r	8.G	8.B-	8a_
.	.	.	32a]
.	.	.	32d
.	16Fn	16A	32e
.	.	.	32f
8.r	8.E	[4B-	[2.g
16GG	16D	.	.
[8C	[4E	8.B-]	.
32C]	.	.	.
32D	.	.	.
32C	.	16G	.
32BB-	.	.	.
4AA	8.E]	8.c	.
.	16C	16B-	.
=70	=70	=70	=70
4r	8.F	8.A	8g_
.	.	.	32g]
.	.	.	32c
.	16E	16G	32d
.	.	.	32e
8.r	8.D	2A	[4f
16FF	16C#	.	.
[8BB-	[4D	.	8.f]
32BB-]	.	.	.
32Cn	.	.	.
32BB-	.	.	16d
32AA	.	.	.
8.BB-	8.D]	8.G	8.g
16BBn	[16G	16d	16f
=71	=71	=71	=71
8.C	4G]	8.c	8.e
16BB-	.	16e	16g
8.AA	8.r	8.f	8.cc
16C	16E	16g	16b-
8.F	8.A	8.f	8.a
16E	16G	16g	16cc
8.D	8.F	[4a	8.ff
16F	16c	.	16ee-
=72	=72	=72	=72
8.B-	8.d	8.a]	4.dd
16A	16c	16f#	.
8.G	8.B-	8.g	.
.	.	.	16r
16Fn	16A	16a	16dd
8.E	4.G	4.b-	4.cc#
16F	.	.	.
8.E	.	.	.
.	16r	16r	16r
16D	16G	16b-	16ee
=73	=73	=73	=73
4C#;	4G;	4e;	4a;
8r	8r	8r	8r
8AA	8A	8cc#	32ee
.	.	.	32ff
.	.	.	16gg
8.D	8A	8dd	16ff
.	.	.	16ee
.	8r	8r	16dd
16E	.	.	16cc#
8.F	8.r	8.r	[4dd
16G	16B-	16e	.
=74	=74	=74	=74
8.A	8.A	8.f	8.dd]
16G	16B-	16g	16ee
8.A	8A	8.e	8.cc#
.	8r	.	.
16AA	.	[16g	16dd
[2D	4A	8g_	4dd
.	.	32g]	.
.	.	32g	.
.	.	32f#	.
.	.	32e	.
.	8.d	8.f#	4r
.	16cn	16a	.
=75	=75	=75	=75
1D_	8.B-	8.d	2r
.	16A	16c	.
.	4G	8.B-	.
.	.	16e-	.
.	4F#	[8A	2dd
.	.	32A]	.
.	.	32a	.
.	.	32b-	.
.	.	32cc	.
.	8.G	16b-	.
.	.	16a	.
.	.	16g	.
.	16A	16f#	.
=76	=76	=76	=76
!! Texture expands to five voices.
*	*	*^	*
**kern	**kern	**kern	**kern	**kern
1D_	[4B-	8.g	4.g	2r
.	.	16d	.	.
.	16B-]	8.e	.	.
.	16c	.	.	.
.	16B-	.	8a	.
.	16A	16f#	.	.
.	4.G	4g	4.b-	8.r
.	.	.	.	16dd
.	.	8.dd	.	8.gg
.	8A	.	8cc	.
.	.	16cc	.	16ff#
=77	=77	=77	=77	=77
1D_	8.B-	8.b-	2dd	8.gg
.	16c	16a	.	16aa
.	8.d	4g	.	8.bb-
.	16B-	.	.	16gg
.	8.c	4f#	2ee-	8.aa
.	16A	.	.	32bb-
.	.	.	.	32ccc
.	8.B-	8.g	.	16bb-
.	.	.	.	16aa
.	.	.	.	16gg
.	16c	16a	.	16ff#
=78	=78	=78	=78	=78
1D]	[8d	[4b-	4.dd	[1gg
.	32d]	.	.	.
.	32D	.	.	.
.	32E	.	.	.
.	32F#	.	.	.
.	8.G	16b-]	.	.
.	.	16cc	.	.
.	.	16b-	8cc	.
.	16A	16a	.	.
.	8.B-	[4g	[2b-	.
.	16c	.	.	.
.	16d	16g]	.	.
.	16c	16a	.	.
.	16B-	16g	.	.
.	16A	16f#	.	.
=79	=79	=79	=79	=79
1D;	8G	8e	8.b-]	8.gg]
.	8r	8r	.	.
.	.	.	16a	16ff#
.	8.r	8.r	8.b-	8.gg
.	16G	16B-	16e 16g	16cc# 16ee
.	2F#;	2A;	2d; 2a;	2dd; 2ff#;
====	====	====	====	====
*-	*-	*-	*-	*-
